img/sprites/MonitorPlay.svg

<svg width="54" height="54" viewBox="0 0 54 54" fill="none" xmlns="http://www.w3.org/2000/svg">
<path d="M43.875 8.4375H10.125C8.78234 8.4375 7.49467 8.97087 6.54527 9.92027C5.59587 10.8697 5.0625 12.1573 5.0625 13.5V37.125C5.0625 38.4677 5.59587 39.7553 6.54527 40.7047C7.49467 41.6541 8.78234 42.1875 10.125 42.1875H43.875C45.2177 42.1875 46.5053 41.6541 47.4547 40.7047C48.4041 39.7553 48.9375 38.4677 48.9375 37.125V13.5C48.9375 12.1573 48.4041 10.8697 47.4547 9.92027C46.5053 8.97087 45.2177 8.4375 43.875 8.4375ZM45.5625 37.125C45.5625 37.5726 45.3847 38.0018 45.0682 38.3182C44.7518 38.6347 44.3226 38.8125 43.875 38.8125H10.125C9.67745 38.8125 9.24823 38.6347 8.93176 38.3182C8.61529 38.0018 8.4375 37.5726 8.4375 37.125V13.5C8.4375 13.0524 8.61529 12.6232 8.93176 12.3068C9.24823 11.9903 9.67745 11.8125 10.125 11.8125H43.875C44.3226 11.8125 44.7518 11.9903 45.0682 12.3068C45.3847 12.6232 45.5625 13.0524 45.5625 13.5V37.125ZM35.4375 47.25C35.4375 47.6976 35.2597 48.1268 34.9432 48.4432C34.6268 48.7597 34.1976 48.9375 33.75 48.9375H20.25C19.8024 48.9375 19.3732 48.7597 19.0568 48.4432C18.7403 48.1268 18.5625 47.6976 18.5625 47.25C18.5625 46.8024 18.7403 46.3732 19.0568 46.0568C19.3732 45.7403 19.8024 45.5625 20.25 45.5625H33.75C34.1976 45.5625 34.6268 45.7403 34.9432 46.0568C35.2597 46.3732 35.4375 46.8024 35.4375 47.25ZM34.6866 23.9077L24.5616 17.1577C24.3074 16.9881 24.0119 16.8907 23.7067 16.8759C23.4014 16.8611 23.0979 16.9295 22.8285 17.0737C22.5591 17.2179 22.3339 17.4326 22.177 17.6948C22.0201 17.957 21.9373 18.2569 21.9375 18.5625V32.0625C21.9373 32.3681 22.0201 32.668 22.177 32.9302C22.3339 33.1924 22.5591 33.4071 22.8285 33.5513C23.0979 33.6955 23.4014 33.7639 23.7067 33.7491C24.0119 33.7343 24.3074 33.6369 24.5616 33.4673L34.6866 26.7173C34.918 26.5633 35.1079 26.3545 35.2391 26.1094C35.3704 25.8643 35.4391 25.5905 35.4391 25.3125C35.4391 25.0345 35.3704 24.7607 35.2391 24.5156C35.1079 24.2705 34.918 24.0617 34.6866 23.9077ZM25.3125 28.909V21.7266L30.7083 25.3125L25.3125 28.909Z" fill="#78213A"/>
</svg>

<svg width="54" height="54" viewBox="0 0 54 54" fill="none" xmlns="http://www.w3.org/2000/svg"><path d="M43.875 8.438h-33.75A5.063 5.063 0 005.062 13.5v23.625a5.062 5.062 0 005.063 5.063h33.75a5.062 5.062 0 005.063-5.063V13.5a5.063 5.063 0 00-5.063-5.063zm1.688 28.687a1.687 1.687 0 01-1.688 1.688h-33.75a1.687 1.687 0 01-1.688-1.688V13.5a1.687 1.687 0 011.688-1.688h33.75a1.687 1.687 0 011.688 1.688v23.625zM35.437 47.25a1.687 1.687 0 01-1.687 1.688h-13.5a1.687 1.687 0 110-3.376h13.5a1.687 1.687 0 011.688 1.688zm-.75-23.342l-10.125-6.75a1.688 1.688 0 00-2.625 1.404v13.5a1.688 1.688 0 002.625 1.405l10.125-6.75a1.686 1.686 0 000-2.81zm-9.374 5.001v-7.182l5.395 3.585-5.395 3.597z" fill="#78213A"/></svg>
